X: 36609
T: Shamrocks In The Galax
R: reel
M: 4/4
K: Bminor
|:"Bm"B2F2 B2F2 BABc "G"dcde|"Bm"fBcB dBcB "D" A2F2 A2F2|
"Bm"BAFA BAFA BABc "G"dcde|"Bm"fBcB "D"dcBA [1"Bm"B2d2 B2A2:|2 "Bm"B4- "A7"BABc||
|:"D" dAFA dfed fefg a2af|"A7"gfed cdef gfed cABc|
"D" dAFA dfed fefg a2af|"A7"gfed cABc [1"D" d2f2 d4:|2 "D" d2e2 fedc||

